public/members.svg

<?xml version="1.0" encoding="utf-8"?>
<!-- License: MIT. Made by Iconsax: https://github.com/lusaxweb/iconsax -->
<svg width="800px" height="800px" viewBox="0 0 24 24" fill="none" xmlns="http://www.w3.org/2000/svg">
<path opacity="0.8" d="M17.5291 7.77C17.4591 7.76 17.3891 7.76 17.3191 7.77C15.7691 7.72 14.5391 6.45 14.5391 4.89C14.5391 3.3 15.8291 2 17.4291 2C19.0191 2 20.3191 3.29 20.3191 4.89C20.3091 6.45 19.0791 7.72 17.5291 7.77Z" fill="#292D32"/>
<path opacity="0.8" d="M20.7896 14.6999C19.6696 15.4499 18.0996 15.7299 16.6496 15.5399C17.0296 14.7199 17.2296 13.8099 17.2396 12.8499C17.2396 11.8499 17.0196 10.8999 16.5996 10.0699C18.0796 9.86992 19.6496 10.1499 20.7796 10.8999C22.3596 11.9399 22.3596 13.6499 20.7896 14.6999Z" fill="#292D32"/>
<path opacity="0.8" d="M6.44039 7.77C6.51039 7.76 6.58039 7.76 6.65039 7.77C8.20039 7.72 9.43039 6.45 9.43039 4.89C9.43039 3.3 8.14039 2 6.54039 2C4.95039 2 3.65039 3.29 3.65039 4.89C3.66039 6.45 4.89039 7.72 6.44039 7.77Z" fill="#292D32"/>
<path opacity="0.8" d="M6.54914 12.8501C6.54914 13.8201 6.75914 14.7401 7.13914 15.5701C5.72914 15.7201 4.25914 15.4201 3.17914 14.7101C1.59914 13.6601 1.59914 11.9501 3.17914 10.9001C4.24914 10.1801 5.75914 9.8901 7.17914 10.0501C6.76914 10.8901 6.54914 11.8401 6.54914 12.8501Z" fill="#292D32"/>
<path d="M12.1208 15.87C12.0408 15.86 11.9508 15.86 11.8608 15.87C10.0208 15.81 8.55078 14.3 8.55078 12.44C8.55078 10.54 10.0808 9 11.9908 9C13.8908 9 15.4308 10.54 15.4308 12.44C15.4308 14.3 13.9708 15.81 12.1208 15.87Z" fill="#292D32"/>
<path d="M8.87078 17.9399C7.36078 18.9499 7.36078 20.6099 8.87078 21.6099C10.5908 22.7599 13.4108 22.7599 15.1308 21.6099C16.6408 20.5999 16.6408 18.9399 15.1308 17.9399C13.4208 16.7899 10.6008 16.7899 8.87078 17.9399Z" fill="#292D32"/>
</svg>

<svg xmlns="http://www.w3.org/2000/svg" width="800" height="800" fill="none" viewBox="0 0 24 24"><path fill="#292D32" d="M17.53 7.77a.739.739 0 0 0-.21 0 2.874 2.874 0 0 1-2.78-2.88C14.54 3.3 15.83 2 17.43 2c1.59 0 2.89 1.29 2.89 2.89a2.89 2.89 0 0 1-2.79 2.88ZM20.79 14.7c-1.12.75-2.69 1.03-4.14.84.38-.82.58-1.73.59-2.69 0-1-.22-1.95-.64-2.78 1.48-.2 3.05.08 4.18.83 1.58 1.04 1.58 2.75.01 3.8ZM6.44 7.77c.07-.01.14-.01.21 0a2.874 2.874 0 0 0 2.78-2.88C9.43 3.3 8.14 2 6.54 2 4.95 2 3.65 3.29 3.65 4.89a2.89 2.89 0 0 0 2.79 2.88ZM6.55 12.85c0 .97.21 1.89.59 2.72-1.41.15-2.88-.15-3.96-.86-1.58-1.05-1.58-2.76 0-3.81 1.07-.72 2.58-1.01 4-.85-.41.84-.63 1.79-.63 2.8Z" opacity=".8"/>
    <path fill="#292D32" d="M12.12 15.87a1.13 1.13 0 0 0-.26 0 3.425 3.425 0 0 1-3.31-3.43c0-1.9 1.53-3.44 3.44-3.44 1.9 0 3.44 1.54 3.44 3.44 0 1.86-1.46 3.37-3.31 3.43ZM8.87 17.94c-1.51 1.01-1.51 2.67 0 3.67 1.72 1.15 4.54 1.15 6.26 0 1.51-1.01 1.51-2.67 0-3.67-1.71-1.15-4.53-1.15-6.26 0Z"/>
</svg>
